Obsidian-SemiLight/actions/24s/edit-table-delete-column.svg

<svg viewBox="0 0 24 24" xmlns="http://www.w3.org/2000/svg"><path d="m4 4v1 14 1h15 1v-16h-1zm1 1h2v3 1h-1.0996094-.9003906zm3 0h1 1 1 2 1 1 1v3 1h-1v1h1v4h-1v1h1v4h-1-1-1-2-1-1-1v-4h1v-1h-1v-4h1v-1h-1v-1zm9 0h2v4h-1-1v-1zm-12 5h2v4h-2zm12 0h1 1v4h-1-1zm-12 5h2v4h-2zm12 0h1 1v4h-2v-3z" fill="#4d4d4d"/><path d="m9 5v14h1v-.292969l4-4v4.292969h1v-5.292969-3.9999998-4-.7070312h-.707031-.292969v.2929688l-4 4v-4.2929688zm5 1.7070312v2.5859376l-4 4.0000002v-2.585938zm0 3.9999998v2.585938l-4 4v-2.585938z" fill="#da4453"/></svg>

<svg xmlns="http://www.w3.org/2000/svg" viewBox="0 0 24 24">
  <defs id="defs3051">
    <style type="text/css" id="current-color-scheme">
      .ColorScheme-Text {
        color:#4d4d4d;
      }
      .ColorScheme-NegativeText {
        color:#da4453;
      }
      </style>
  </defs>
  <path 
     style="fill:currentColor;fill-opacity:1;stroke:none" 
     d="M 4 4 L 4 5 L 4 19 L 4 20 L 19 20 L 20 20 L 20 4 L 19 4 L 4 4 z M 5 5 L 7 5 L 7 8 L 7 9 L 5.9003906 9 L 5 9 L 5 5 z M 8 5 L 9 5 L 10 5 L 11 5 L 13 5 L 14 5 L 15 5 L 16 5 L 16 8 L 16 9 L 15 9 L 15 10 L 16 10 L 16 14 L 15 14 L 15 15 L 16 15 L 16 19 L 15 19 L 14 19 L 13 19 L 11 19 L 10 19 L 9 19 L 8 19 L 8 15 L 9 15 L 9 14 L 8 14 L 8 10 L 9 10 L 9 9 L 8 9 L 8 8 L 8 5 z M 17 5 L 19 5 L 19 9 L 18 9 L 17 9 L 17 8 L 17 5 z M 5 10 L 7 10 L 7 14 L 5 14 L 5 10 z M 17 10 L 18 10 L 19 10 L 19 14 L 18 14 L 17 14 L 17 10 z M 5 15 L 7 15 L 7 19 L 5 19 L 5 15 z M 17 15 L 18 15 L 19 15 L 19 19 L 17 19 L 17 16 L 17 15 z "
     class="ColorScheme-Text"/>
  <path
     style="fill:currentColor;fill-opacity:1;stroke:none" 
     d="M 9 5 L 9 19 L 10 19 L 10 18.707031 L 14 14.707031 L 14 19 L 15 19 L 15 13.707031 L 15 9.7070312 L 15 5.7070312 L 15 5 L 14.292969 5 L 14 5 L 14 5.2929688 L 10 9.2929688 L 10 5 L 9 5 z M 14 6.7070312 L 14 9.2929688 L 10 13.292969 L 10 10.707031 L 14 6.7070312 z M 14 10.707031 L 14 13.292969 L 10 17.292969 L 10 14.707031 L 14 10.707031 z "
     class="ColorScheme-NegativeText"
     />
</svg>
